app/dist/common/images/ecograf-limited.svg

<svg height="18" viewBox="0 0 18 18" width="18" xmlns="http://www.w3.org/2000/svg"><path d="m0 0h18v18h-18z" fill="#f0f3fa"/><path d="m4 9.12v3.55h1.33v-3.53c0-2.02 1.73-3.8 3.77-3.8h3.57l1.33-1.34h-4.83a5.14 5.14 0 0 0 -5.17 5.12z" fill="#2ed611"/><path d="m14 8.88v-3.55h-1.33v3.53c0 2.02-1.73 3.8-3.77 3.8h-3.57l-1.33 1.34h4.83c2.87 0 5.17-2.3 5.17-5.12z" fill="#39ff12"/><path d="m9.65 8.33h-2.65c.3-.91 1.28-1.27 1.73-1.33h2.27z" fill="#2ed611"/><path d="m8.35 9.67h2.65c-.3.91-1.28 1.27-1.73 1.33h-2.27z" fill="#39ff12"/></svg>

<!-- by TradingView --><svg width="18" height="18" viewBox="0 0 18 18" xmlns="http://www.w3.org/2000/svg"><path fill="#F0F3FA" d="M0 0h18v18H0z"/><path d="M4 9.12v3.55h1.33V9.14c0-2.02 1.73-3.8 3.77-3.8h3.57L14 4H9.17A5.14 5.14 0 0 0 4 9.12Z" fill="#2ED611"/><path d="M14 8.88V5.33h-1.33v3.53c0 2.02-1.73 3.8-3.77 3.8H5.33L4 14h4.83C11.7 14 14 11.7 14 8.88Z" fill="#39FF12"/><path d="M9.65 8.33H7C7.3 7.42 8.28 7.06 8.73 7H11L9.65 8.33Z" fill="#2ED611"/><path d="M8.35 9.67H11c-.3.91-1.28 1.27-1.73 1.33H7l1.35-1.33Z" fill="#39FF12"/></svg>
